;FLAVOR:Marlin
;TIME:2520
;Filament used: 1.0987m
;Layer height: 0.1
;MINX:71.381
;MINY:81.581
;MINZ:0.3
;MAXX:128.619
;MAXY:118.419
;MAXZ:17
;Generated with Cura_SteamEngine 4.13.1
M140 S60
M105
M190 S60
M104 S200
M105
M109 S200
M82 ;absolute extrusion mode
G21 ;metric values
 G90 ;absolute positioning
 M82 ;set extruder to absolute mode
 M107 ;start with the fan off
 G28 X0 Y0 ;move X/Y to min endstops
 G28 Z0 ;move Z to min endstops
 G1 Z15.0 F120 ;move the platform down 15mm
 G92 E0 ;zero the extruded length
 G1 F200 E6 ;extrude 6 mm of feed stock
 G92 E0 ;zero the extruded length again
 G1 F120 
 ;Put printing message on LCD screen
 M117 Printing...
G92 E0
G92 E0
G1 F1500 E-6.5
;LAYER_COUNT:168
;LAYER:0
M107
G0 F3600 X78.76 Y86.077 Z0.3
;TYPE:SKIRT
G1 F1500 E0
G1 F1800 X79.346 Y85.547 E0.03942
G1 X79.982 Y85.08 E0.07878
G1 X80.662 Y84.679 E0.11817
G1 X81.38 Y84.349 E0.15759
G1 X82.254 Y84.058 E0.20355
G1 X87.354 Y82.69 E0.46699
G1 X88.126 Y82.525 E0.50637
G1 X88.911 Y82.438 E0.54577
G1 X89.701 Y82.431 E0.58519
G1 X90.487 Y82.504 E0.62457
G1 X91.396 Y82.69 E0.67086
G1 X96.496 Y84.058 E0.9343
G1 X97.247 Y84.301 E0.97368
G1 X97.97 Y84.619 E1.01308
G1 X98.657 Y85.008 E1.05247
G1 X99.302 Y85.465 E1.09191
G1 X99.99 Y86.077 E1.13785
G1 X100.736 Y86.823 E1.19048
G1 X102.56 Y84.999 E1.31917
G1 X103.146 Y84.469 E1.35859
G1 X103.782 Y84.002 E1.39796
G1 X104.462 Y83.601 E1.43734
G1 X105.18 Y83.271 E1.47677
G1 X106.054 Y82.98 E1.52272
G1 X110.304 Y81.84 E1.74225
G1 X111.076 Y81.675 E1.78164
G1 X111.861 Y81.588 E1.82104
G1 X112.651 Y81.581 E1.86046
G1 X113.437 Y81.654 E1.89984
G1 X114.346 Y81.84 E1.94613
G1 X118.596 Y82.98 E2.16566
G1 X119.347 Y83.223 E2.20504
G1 X120.07 Y83.541 E2.24444
G1 X120.757 Y83.93 E2.28383
G1 X121.402 Y84.387 E2.32327
G1 X122.09 Y84.999 E2.36921
G1 X125.201 Y88.11 E2.58871
G1 X125.731 Y88.696 E2.62812
G1 X126.198 Y89.332 E2.66749
G1 X126.599 Y90.012 E2.70688
G1 X126.929 Y90.73 E2.7463
G1 X127.22 Y91.604 E2.79226
G1 X128.36 Y95.854 E3.01178
G1 X128.525 Y96.626 E3.05117
G1 X128.612 Y97.411 E3.09057
G1 X128.619 Y98.201 E3.12999
G1 X128.546 Y98.987 E3.16937
G1 X128.36 Y99.896 E3.21566
G1 X127.22 Y104.146 E3.43519
G1 X126.977 Y104.897 E3.47457
G1 X126.659 Y105.62 E3.51397
G1 X126.27 Y106.307 E3.55336
G1 X125.813 Y106.952 E3.5928
G1 X125.201 Y107.64 E3.63874
G1 X122.09 Y110.751 E3.85824
G1 X121.504 Y111.281 E3.89766
G1 X120.868 Y111.748 E3.93702
G1 X120.188 Y112.149 E3.97641
G1 X119.47 Y112.479 E4.01583
G1 X118.596 Y112.77 E4.06179
G1 X114.346 Y113.91 E4.28132
G1 X113.574 Y114.075 E4.3207
G1 X112.789 Y114.162 E4.36011
G1 X111.999 Y114.169 E4.39952
G1 X111.213 Y114.096 E4.4389
G1 X110.304 Y113.91 E4.48519
G1 X106.054 Y112.77 E4.70472
G1 X105.303 Y112.527 E4.7441
G1 X104.58 Y112.209 E4.78351
G1 X103.893 Y111.82 E4.82289
G1 X103.337 Y111.426 E4.85689
G1 X99.99 Y114.773 E5.09304
G1 X99.404 Y115.303 E5.13246
G1 X98.768 Y115.77 E5.17183
G1 X98.088 Y116.171 E5.21121
G1 X97.37 Y116.501 E5.25063
G1 X96.496 Y116.792 E5.29659
G1 X91.396 Y118.16 E5.56003
G1 X90.624 Y118.325 E5.59941
G1 X89.839 Y118.412 E5.63882
G1 X89.049 Y118.419 E5.67823
G1 X88.263 Y118.346 E5.71761
G1 X87.354 Y118.16 E5.7639
G1 X82.254 Y116.792 E6.02734
G1 X81.503 Y116.549 E6.06672
G1 X80.78 Y116.231 E6.10612
G1 X80.093 Y115.842 E6.14551
G1 X79.448 Y115.385 E6.18495
G1 X78.76 Y114.773 E6.23089
G1 X75.027 Y111.04 E6.49427
G1 X74.497 Y110.454 E6.53369
G1 X74.03 Y109.818 E6.57306
G1 X73.629 Y109.138 E6.61244
G1 X73.299 Y108.42 E6.65186
G1 X73.008 Y107.546 E6.69782
G1 X71.64 Y102.446 E6.96126
G1 X71.475 Y101.674 E7.00064
G1 X71.388 Y100.889 E7.04004
G1 X71.381 Y100.099 E7.07946
G1 X71.454 Y99.313 E7.11884
G1 X71.64 Y98.404 E7.16513
G1 X73.008 Y93.304 E7.42857
G1 X73.251 Y92.553 E7.46795
G1 X73.569 Y91.83 E7.50735
G1 X73.958 Y91.143 E7.54674
G1 X74.415 Y90.498 E7.58618
G1 X75.027 Y89.81 E7.63212
G1 X78.76 Y86.077 E7.8955
G0 F3600 X79.042 Y86.359
G1 F1800 X79.614 Y85.845 E7.93387
G1 X80.236 Y85.392 E7.97226
G1 X80.901 Y85.006 E8.01062
G1 X81.603 Y84.691 E8.049
G1 X82.358 Y84.445 E8.08862
G1 X87.458 Y83.077 E8.35205
G1 X88.21 Y82.916 E8.39042
G1 X88.975 Y82.835 E8.4288
G1 X89.744 Y82.833 E8.46717
G1 X90.509 Y82.911 E8.50553
G1 X91.292 Y83.077 E8.54546
G1 X96.392 Y84.445 E8.8089
G1 X97.124 Y84.682 E8.84728
G1 X97.827 Y84.995 E8.88568
G1 X98.493 Y85.378 E8.924
G1 X99.117 Y85.829 E8.96242
G1 X99.708 Y86.359 E9.00202
G1 X100.736 Y87.387 E9.07455
G1 X102.842 Y85.281 E9.22314
G1 X103.414 Y84.767 E9.26151
G1 X104.036 Y84.314 E9.2999
G1 X104.701 Y83.928 E9.33826
G1 X105.403 Y83.613 E9.37665
G1 X106.158 Y83.367 E9.41626
G1 X110.408 Y82.227 E9.63579
G1 X111.16 Y82.066 E9.67416
G1 X111.925 Y81.985 E9.71254
G1 X112.694 Y81.983 E9.7509
G1 X113.459 Y82.061 E9.78927
G1 X114.242 Y82.227 E9.8292
G1 X118.492 Y83.367 E10.04873
G1 X119.224 Y83.604 E10.08711
G1 X119.927 Y83.917 E10.12551
G1 X120.593 Y84.3 E10.16384
G1 X121.217 Y84.751 E10.20225
G1 X121.808 Y85.281 E10.24185
G1 X124.919 Y88.392 E10.46135
G1 X125.433 Y88.964 E10.49972
G1 X125.886 Y89.586 E10.53811
G1 X126.272 Y90.251 E10.57647
G1 X126.587 Y90.953 E10.61485
G1 X126.833 Y91.708 E10.65447
G1 X127.973 Y95.958 E10.874
G1 X128.134 Y96.71 E10.91237
G1 X128.215 Y97.475 E10.95075
G1 X128.217 Y98.244 E10.98911
G1 X128.139 Y99.009 E11.02747
G1 X127.973 Y99.792 E11.06741
G1 X126.833 Y104.042 E11.28694
G1 X126.596 Y104.774 E11.32532
G1 X126.283 Y105.477 E11.36371
G1 X125.9 Y106.143 E11.40204
G1 X125.449 Y106.767 E11.44045
G1 X124.919 Y107.358 E11.48006
G1 X121.808 Y110.469 E11.69956
G1 X121.236 Y110.983 E11.73792
G1 X120.614 Y111.436 E11.77631
G1 X119.949 Y111.822 E11.81467
G1 X119.247 Y112.137 E11.85306
G1 X118.492 Y112.383 E11.89268
G1 X114.242 Y113.523 E12.11221
G1 X113.49 Y113.684 E12.15057
G1 X112.725 Y113.765 E12.18895
G1 X111.956 Y113.767 E12.22732
G1 X111.191 Y113.689 E12.26568
G1 X110.408 Y113.523 E12.30561
G1 X106.158 Y112.383 E12.52514
G1 X105.426 Y112.146 E12.56353
G1 X104.723 Y111.833 E12.60192
G1 X104.057 Y111.45 E12.64025
G1 X103.433 Y110.999 E12.67866
G1 X103.31 Y110.889 E12.6869
G1 X99.708 Y114.491 E12.94104
G1 X99.136 Y115.005 E12.9794
G1 X98.514 Y115.458 E13.01779
G1 X97.849 Y115.844 E13.05615
G1 X97.147 Y116.159 E13.09454
G1 X96.392 Y116.405 E13.13416
G1 X91.292 Y117.773 E13.39759
G1 X90.54 Y117.934 E13.43596
G1 X89.775 Y118.015 E13.47434
G1 X89.006 Y118.017 E13.5127
G1 X88.241 Y117.939 E13.55107
G1 X87.458 Y117.773 E13.591
G1 X82.358 Y116.405 E13.85443
G1 X81.626 Y116.168 E13.89282
G1 X80.923 Y115.855 E13.93121
G1 X80.257 Y115.472 E13.96954
G1 X79.633 Y115.021 E14.00795
G1 X79.042 Y114.491 E14.04756
G1 X75.309 Y110.758 E14.31094
G1 X74.795 Y110.186 E14.34931
G1 X74.342 Y109.564 E14.3877
G1 X73.956 Y108.899 E14.42606
G1 X73.641 Y108.197 E14.46444
G1 X73.395 Y107.442 E14.50406
G1 X72.027 Y102.342 E14.7675
G1 X71.866 Y101.59 E14.80586
G1 X71.785 Y100.825 E14.84424
G1 X71.783 Y100.056 E14.88261
G1 X71.861 Y99.291 E14.92097
G1 X72.027 Y98.508 E14.9609
G1 X73.395 Y93.408 E15.22434
G1 X73.632 Y92.676 E15.26272
G1 X73.945 Y91.973 E15.30112
G1 X74.328 Y91.307 E15.33945
G1 X74.779 Y90.683 E15.37786
G1 X75.309 Y90.092 E15.41746
G1 X79.042 Y86.359 E15.68085
G0 F3600 X79.325 Y86.642
G1 F1800 X79.882 Y86.142 E15.71819
G1 X80.488 Y85.705 E15.75546
G1 X81.138 Y85.334 E15.7928
G1 X81.824 Y85.035 E15.83014
G1 X82.461 Y84.831 E15.86351
G1 X87.561 Y83.463 E16.12694
G1 X88.293 Y83.308 E16.16427
G1 X89.038 Y83.232 E16.20163
G1 X89.786 Y83.236 E16.23895
G1 X90.529 Y83.32 E16.27625
G1 X91.189 Y83.463 E16.30995
G1 X96.289 Y84.831 E16.57338
G1 X97 Y85.063 E16.61069
G1 X97.682 Y85.37 E16.64801
G1 X98.328 Y85.748 E16.68535
G1 X98.929 Y86.192 E16.72263
G1 X99.425 Y86.642 E16.75604
G1 X100.736 Y87.953 E16.84854
G1 X103.125 Y85.564 E17.01709
G1 X103.682 Y85.064 E17.05444
G1 X104.288 Y84.627 E17.09171
G1 X104.938 Y84.256 E17.12905
G1 X105.624 Y83.957 E17.16638
G1 X106.261 Y83.753 E17.19975
G1 X110.511 Y82.613 E17.41928
G1 X111.243 Y82.458 E17.45661
G1 X111.988 Y82.382 E17.49397
G1 X112.736 Y82.386 E17.53129
G1 X113.479 Y82.47 E17.5686
G1 X114.139 Y82.613 E17.60229
G1 X118.389 Y83.753 E17.82182
G1 X119.1 Y83.985 E17.85913
G1 X119.782 Y84.292 E17.89644
G1 X120.428 Y84.67 E17.93378
G1 X121.029 Y85.114 E17.97106
G1 X121.525 Y85.564 E18.00447
G1 X124.636 Y88.675 E18.22397
G1 X125.136 Y89.232 E18.26132
G1 X125.573 Y89.838 E18.29859
G1 X125.944 Y90.488 E18.33593
G1 X126.243 Y91.174 E18.37326
G1 X126.447 Y91.811 E18.40663
G1 X127.587 Y96.061 E18.62616
G1 X127.742 Y96.793 E18.66349
G1 X127.818 Y97.538 E18.70085
G1 X127.814 Y98.286 E18.73817
G1 X127.73 Y99.029 E18.77548
G1 X127.587 Y99.689 E18.80917
G1 X126.447 Y103.939 E19.0287
G1 X126.215 Y104.65 E19.06601
G1 X125.908 Y105.332 E19.10332
G1 X125.53 Y105.978 E19.14066
G1 X125.086 Y106.579 E19.17794
G1 X124.636 Y107.075 E19.21135
G1 X121.525 Y110.186 E19.43085
G1 X120.968 Y110.686 E19.46819
G1 X120.362 Y111.123 E19.50547
G1 X119.712 Y111.494 E19.54281
G1 X119.026 Y111.793 E19.58014
G1 X118.389 Y111.997 E19.61351
G1 X114.139 Y113.137 E19.83304
G1 X113.407 Y113.292 E19.87037
G1 X112.662 Y113.368 E19.90773
G1 X111.914 Y113.364 E19.94505
G1 X111.171 Y113.28 E19.98235
G1 X110.511 Y113.137 E20.01605
G1 X106.261 Y111.997 E20.23558
G1 X105.55 Y111.765 E20.27289
G1 X104.868 Y111.458 E20.3102
G1 X104.222 Y111.08 E20.34754
G1 X103.621 Y110.636 E20.38482
G1 X103.287 Y110.333 E20.40732
G1 X103.158 Y110.475 E20.41689
G1 X99.425 Y114.208 E20.68027
G1 X98.868 Y114.708 E20.71762
G1 X98.262 Y115.145 E20.75489
G1 X97.612 Y115.516 E20.79223
G1 X96.926 Y115.815 E20.82957
G1 X96.289 Y116.019 E20.86293
G1 X91.189 Y117.387 E21.12637
G1 X90.457 Y117.542 E21.1637
G1 X89.712 Y117.618 E21.20106
G1 X88.964 Y117.614 E21.23838
G1 X88.221 Y117.53 E21.27568
G1 X87.561 Y117.387 E21.30937
G1 X82.461 Y116.019 E21.57281
G1 X81.75 Y115.787 E21.61012
G1 X81.068 Y115.48 E21.64744
G1 X80.422 Y115.102 E21.68478
G1 X79.821 Y114.658 E21.72206
G1 X79.325 Y114.208 E21.75547
G1 X75.592 Y110.475 E22.01885
G1 X75.092 Y109.918 E22.05619
G1 X74.655 Y109.312 E22.09347
G1 X74.284 Y108.662 E22.13081
G1 X73.985 Y107.976 E22.16814
G1 X73.781 Y107.339 E22.20151
G1 X72.413 Y102.239 E22.46495
G1 X72.258 Y101.507 E22.50228
G1 X72.182 Y100.762 E22.53964
G1 X72.186 Y100.014 E22.57695
G1 X72.27 Y99.271 E22.61426
G1 X72.413 Y98.611 E22.64795
G1 X73.781 Y93.511 E22.91139
G1 X74.013 Y92.8 E22.9487
G1 X74.32 Y92.118 E22.98601
G1 X74.698 Y91.472 E23.02335
G1 X75.142 Y90.871 E23.06063
G1 X75.592 Y90.375 E23.09404
G1 X79.325 Y86.642 E23.35743
G0 F3600 X79.608 Y86.925
G1 F1800 X80.149 Y86.441 E23.39364
G1 X80.74 Y86.018 E23.4299
G1 X81.374 Y85.664 E23.46613
G1 X82.043 Y85.381 E23.50237
G1 X82.565 Y85.217 E23.52967
G1 X87.665 Y83.849 E23.7931
G1 X88.376 Y83.7 E23.82934
G1 X89.099 Y83.63 E23.86558
G1 X89.825 Y83.639 E23.90181
G1 X90.546 Y83.729 E23.93806
G1 X91.085 Y83.849 E23.9656
G1 X96.185 Y85.217 E24.22904
G1 X96.875 Y85.444 E24.26528
G1 X97.536 Y85.745 E24.30151
G1 X98.16 Y86.117 E24.33776
G1 X98.739 Y86.555 E24.37398
G1 X99.142 Y86.925 E24.40127
G1 X100.736 Y88.519 E24.51374
G1 X103.408 Y85.847 E24.70226
G1 X103.949 Y85.363 E24.73848
G1 X104.54 Y84.94 E24.77474
G1 X105.174 Y84.586 E24.81096
G1 X105.843 Y84.303 E24.8472
G1 X106.365 Y84.139 E24.8745
G1 X110.615 Y82.999 E25.09403
G1 X111.326 Y82.85 E25.13027
G1 X112.049 Y82.78 E25.16651
G1 X112.775 Y82.789 E25.20274
G1 X113.496 Y82.879 E25.23899
G1 X114.035 Y82.999 E25.26653
G1 X118.285 Y84.139 E25.48606
G1 X118.975 Y84.366 E25.5223
G1 X119.636 Y84.667 E25.55854
G1 X120.26 Y85.039 E25.59478
G1 X120.839 Y85.477 E25.631
G1 X121.242 Y85.847 E25.6583
G1 X124.353 Y88.958 E25.8778
G1 X124.837 Y89.499 E25.91401
G1 X125.26 Y90.09 E25.95027
G1 X125.614 Y90.724 E25.9865
G1 X125.897 Y91.393 E26.02274
G1 X126.061 Y91.915 E26.05003
G1 X127.201 Y96.165 E26.26956
G1 X127.35 Y96.876 E26.30581
G1 X127.42 Y97.599 E26.34205
G1 X127.411 Y98.325 E26.37827
G1 X127.321 Y99.046 E26.41452
G1 X127.201 Y99.585 E26.44207
G1 X126.061 Y103.835 E26.6616
G1 X125.834 Y104.525 E26.69784
G1 X125.533 Y105.186 E26.73407
G1 X125.161 Y105.81 E26.77032
G1 X124.723 Y106.389 E26.80654
G1 X124.353 Y106.792 E26.83383
G1 X121.242 Y109.903 E27.05333
G1 X120.701 Y110.387 E27.08954
G1 X120.11 Y110.81 E27.1258
G1 X119.476 Y111.164 E27.16203
G1 X118.807 Y111.447 E27.19827
G1 X118.285 Y111.611 E27.22557
G1 X114.035 Y112.751 E27.4451
G1 X113.324 Y112.9 E27.48134
G1 X112.601 Y112.97 E27.51758
G1 X111.875 Y112.961 E27.5538
G1 X111.154 Y112.871 E27.59005
G1 X110.615 Y112.751 E27.6176
G1 X106.365 Y111.611 E27.83713
G1 X105.675 Y111.384 E27.87337
G1 X105.014 Y111.083 E27.9096
G1 X104.39 Y110.711 E27.94585
G1 X103.811 Y110.273 E27.98207
G1 X103.408 Y109.903 E28.00936
G1 X103.266 Y109.761 E28.01938
G1 X103.245 Y109.789 E28.02113
G1 X102.875 Y110.192 E28.04842
G1 X99.142 Y113.925 E28.31181
G1 X98.601 Y114.409 E28.34802
G1 X98.01 Y114.832 E28.38428
G1 X97.376 Y115.186 E28.42051
G1 X96.707 Y115.469 E28.45675
G1 X96.185 Y115.633 E28.48405
G1 X91.085 Y117.001 E28.74748
G1 X90.374 Y117.15 E28.78372
G1 X89.651 Y117.22 E28.81996
G1 X88.925 Y117.211 E28.85618
G1 X88.204 Y117.121 E28.89243
G1 X87.665 Y117.001 E28.91998
G1 X82.565 Y115.633 E29.18342
G1 X81.875 Y115.406 E29.21966
G1 X81.214 Y115.105 E29.25589
G1 X80.59 Y114.733 E29.29214
G1 X80.011 Y114.295 E29.32836
G1 X79.608 Y113.925 E29.35565
G1 X75.875 Y110.192 E29.61904
G1 X75.391 Y109.651 E29.65525
G1 X74.968 Y109.06 E29.69151
G1 X74.614 Y108.426 E29.72774
G1 X74.331 Y107.757 E29.76398
G1 X74.167 Y107.235 E29.79128
G1 X72.799 Y102.135 E30.05471
G1 X72.65 Y101.424 E30.09095
G1 X72.58 Y100.701 E30.12719
G1 X72.589 Y99.975 E30.16341
G1 X72.679 Y99.254 E30.19966
G1 X72.799 Y98.715 E30.22721
G1 X74.167 Y93.615 E30.49065
G1 X74.394 Y92.925 E30.52689
G1 X74.695 Y92.264 E30.56312
G1 X75.067 Y91.64 E30.59937
G1 X75.505 Y91.061 E30.63559
G1 X75.875 Y90.658 E30.66288
G1 X79.608 Y86.925 E30.92627
G0 F3600 X79.891 Y87.208
G1 F1800 X80.416 Y86.739 E30.96139
G1 X80.991 Y86.333 E30.9965
G1 X81.609 Y85.995 E31.03165
G1 X82.26 Y85.728 E31.06675
G1 X82.669 Y85.604 E31.08807
G1 X87.769 Y84.236 E31.35151
G1 X88.458 Y84.092 E31.38662
G1 X89.159 Y84.028 E31.42174
G1 X89.863 Y84.043 E31.45687
G1 X90.56 Y84.138 E31.49197
G1 X90.981 Y84.236 E31.51353
G1 X96.081 Y85.604 E31.77697
G1 X96.75 Y85.824 E31.8121
G1 X97.389 Y86.119 E31.84722
G1 X97.991 Y86.485 E31.88237
G1 X98.547 Y86.917 E31.91749
G1 X98.859 Y87.208 E31.93878
G1 X100.736 Y89.085 E32.07121
G1 X103.691 Y86.13 E32.2797
G1 X104.216 Y85.661 E32.31482
G1 X104.791 Y85.255 E32.34994
G1 X105.409 Y84.917 E32.38508
G1 X106.06 Y84.65 E32.42019
G1 X106.469 Y84.526 E32.44151
G1 X110.719 Y83.386 E32.66104
G1 X111.408 Y83.242 E32.69616
G1 X112.109 Y83.178 E32.73127
G1 X112.813 Y83.193 E32.7664
G1 X113.51 Y83.288 E32.8015
G1 X113.931 Y83.386 E32.82307
G1 X118.181 Y84.526 E33.04259
G1 X118.85 Y84.746 E33.07773
G1 X119.489 Y85.041 E33.11284
G1 X120.091 Y85.407 E33.14799
G1 X120.647 Y85.839 E33.18312
G1 X120.959 Y86.13 E33.2044
G1 X124.07 Y89.241 E33.4239
G1 X124.539 Y89.766 E33.45902
G1 X124.945 Y90.341 E33.49414
G1 X125.283 Y90.959 E33.52928
G1 X125.55 Y91.61 E33.56439
G1 X125.674 Y92.019 E33.58571
G1 X126.814 Y96.269 E33.80524
G1 X126.958 Y96.958 E33.84036
G1 X127.022 Y97.659 E33.87547
G1 X127.007 Y98.363 E33.9106
G1 X126.912 Y99.06 E33.9457
G1 X126.814 Y99.481 E33.96726
G1 X125.674 Y103.731 E34.18679
G1 X125.454 Y104.4 E34.22193
G1 X125.159 Y105.039 E34.25704
G1 X124.793 Y105.641 E34.29219
G1 X124.361 Y106.197 E34.32732
G1 X124.07 Y106.509 E34.3486
G1 X120.959 Y109.62 E34.5681
G1 X120.434 Y110.089 E34.60322
G1 X119.859 Y110.495 E34.63834
G1 X119.241 Y110.833 E34.67348
G1 X118.59 Y111.1 E34.70859
G1 X118.181 Y111.224 E34.72991
G1 X113.931 Y112.364 E34.94944
G1 X113.242 Y112.508 E34.98456
G1 X112.541 Y112.572 E35.01967
G1 X111.837 Y112.557 E35.0548
G1 X111.14 Y112.462 E35.0899
G1 X110.719 Y112.364 E35.11146
G1 X106.469 Y111.224 E35.33099
G1 X105.8 Y111.004 E35.36613
G1 X105.161 Y110.709 E35.40124
G1 X104.559 Y110.343 E35.43639
G1 X104.003 Y109.911 E35.47152
G1 X103.691 Y109.62 E35.4928
G1 X103.226 Y109.155 E35.52561
G1 X102.883 Y109.597 E35.55352
G1 X102.592 Y109.909 E35.57481
