;FLAVOR:Marlin
;TIME:1366
;Filament used: 0.576095m
;Layer height: 0.1
;MINX:76.035
;MINY:83.956
;MINZ:0.3
;MAXX:123.965
;MAXY:116.044
;MAXZ:13.2
;Generated with Cura_SteamEngine 4.13.1
M140 S60
M105
M190 S60
M104 S200
M105
M109 S200
M82 ;absolute extrusion mode
G21 ;metric values
 G90 ;absolute positioning
 M82 ;set extruder to absolute mode
 M107 ;start with the fan off
 G28 X0 Y0 ;move X/Y to min endstops
 G28 Z0 ;move Z to min endstops
 G1 Z15.0 F120 ;move the platform down 15mm
 G92 E0 ;zero the extruded length
 G1 F200 E6 ;extrude 6 mm of feed stock
 G92 E0 ;zero the extruded length again
 G1 F120 
 ;Put printing message on LCD screen
 M117 Printing...
G92 E0
G92 E0
G1 F1500 E-6.5
;LAYER_COUNT:130
;LAYER:0
M107
G0 F3600 X82.273 Y87.957 Z0.3
;TYPE:SKIRT
G1 F1500 E0
G1 F1800 X82.858 Y87.427 E0.03938
G1 X83.495 Y86.959 E0.07882
G1 X84.175 Y86.559 E0.11818
G1 X84.893 Y86.229 E0.1576
G1 X85.769 Y85.937 E0.20367
G1 X89.73 Y84.875 E0.40826
G1 X90.502 Y84.709 E0.44766
G1 X91.287 Y84.623 E0.48706
G1 X92.077 Y84.616 E0.52647
G1 X92.863 Y84.689 E0.56585
G1 X93.77 Y84.875 E0.61205
G1 X97.73 Y85.937 E0.81659
G1 X98.482 Y86.18 E0.85602
G1 X99.205 Y86.498 E0.89543
G1 X99.892 Y86.887 E0.93481
G1 X100.533 Y87.341 E0.974
G1 X100.753 Y87.12 E0.98956
G1 X101.339 Y86.59 E1.02898
G1 X101.976 Y86.123 E1.06838
G1 X102.656 Y85.722 E1.10777
G1 X103.373 Y85.392 E1.14715
G1 X104.25 Y85.1 E1.19326
G1 X107.55 Y84.215 E1.36372
G1 X108.322 Y84.05 E1.4031
G1 X109.107 Y83.963 E1.44251
G1 X109.896 Y83.956 E1.48187
G1 X110.683 Y84.029 E1.5213
G1 X111.59 Y84.215 E1.5675
G1 X114.891 Y85.1 E1.738
G1 X115.642 Y85.343 E1.77738
G1 X116.365 Y85.66 E1.81676
G1 X117.052 Y86.05 E1.85618
G1 X117.697 Y86.506 E1.89559
G1 X118.388 Y87.12 E1.9417
G1 X120.803 Y89.536 E2.11213
G1 X121.332 Y90.122 E2.15152
G1 X121.799 Y90.758 E2.19088
G1 X122.2 Y91.439 E2.23031
G1 X122.529 Y92.156 E2.26967
G1 X122.819 Y93.027 E2.31547
G1 X123.705 Y96.327 E2.48593
G1 X123.871 Y97.1 E2.52538
G1 X123.958 Y97.884 E2.56473
G1 X123.965 Y98.674 E2.60415
G1 X123.893 Y99.46 E2.64353
G1 X123.705 Y100.373 E2.69003
G1 X122.819 Y103.673 E2.8605
G1 X122.576 Y104.424 E2.89988
G1 X122.258 Y105.147 E2.93928
G1 X121.869 Y105.834 E2.97867
G1 X121.412 Y106.478 E3.01807
G1 X120.803 Y107.164 E3.06383
G1 X118.388 Y109.58 E3.23426
G1 X117.802 Y110.11 E3.27368
G1 X117.165 Y110.577 E3.31309
G1 X116.485 Y110.978 E3.35247
G1 X115.768 Y111.308 E3.39185
G1 X114.891 Y111.6 E3.43796
G1 X111.59 Y112.485 E3.60847
G1 X110.818 Y112.651 E3.64786
G1 X110.033 Y112.737 E3.68726
G1 X109.243 Y112.744 E3.72668
G1 X108.457 Y112.671 E3.76606
G1 X107.55 Y112.485 E3.81225
G1 X104.25 Y111.6 E3.98271
G1 X103.498 Y111.357 E4.02213
G1 X102.855 Y111.074 E4.05718
G1 X101.225 Y112.704 E4.17219
G1 X100.639 Y113.234 E4.21161
G1 X100.003 Y113.701 E4.25097
G1 X99.323 Y114.102 E4.29036
G1 X98.605 Y114.432 E4.32978
G1 X97.73 Y114.723 E4.37579
G1 X93.77 Y115.785 E4.58033
G1 X92.998 Y115.95 E4.61972
G1 X92.213 Y116.037 E4.65912
G1 X91.424 Y116.044 E4.69849
G1 X90.637 Y115.971 E4.73792
G1 X89.73 Y115.785 E4.78411
G1 X85.769 Y114.723 E4.98871
G1 X85.018 Y114.48 E5.02809
G1 X84.295 Y114.162 E5.06749
G1 X83.607 Y113.773 E5.10692
G1 X82.963 Y113.317 E5.14629
G1 X82.273 Y112.703 E5.19237
G1 X79.375 Y109.804 E5.39688
G1 X78.845 Y109.218 E5.43629
G1 X78.378 Y108.582 E5.47566
G1 X77.977 Y107.901 E5.51509
G1 X77.648 Y107.184 E5.55445
G1 X77.358 Y106.312 E5.60029
G1 X76.295 Y102.352 E5.80485
G1 X76.129 Y101.58 E5.84425
G1 X76.042 Y100.795 E5.88365
G1 X76.035 Y100.006 E5.92302
G1 X76.107 Y99.219 E5.96244
G1 X76.295 Y98.308 E6.00885
G1 X77.358 Y94.348 E6.21341
G1 X77.601 Y93.596 E6.25284
G1 X77.919 Y92.874 E6.2922
G1 X78.308 Y92.186 E6.33163
G1 X78.765 Y91.542 E6.37103
G1 X79.375 Y90.856 E6.41682
G1 X82.273 Y87.957 E6.62133
G0 F3600 X82.556 Y88.239
G1 F1800 X83.127 Y87.724 E6.65969
G1 X83.749 Y87.271 E6.69808
G1 X84.414 Y86.886 E6.73642
G1 X85.116 Y86.571 E6.7748
G1 X85.873 Y86.323 E6.81455
G1 X89.834 Y85.261 E7.01914
G1 X90.586 Y85.101 E7.0575
G1 X91.351 Y85.02 E7.09588
G1 X92.12 Y85.018 E7.13424
G1 X92.885 Y85.097 E7.17261
G1 X93.667 Y85.262 E7.21249
G1 X97.627 Y86.324 E7.41703
G1 X98.358 Y86.561 E7.45537
G1 X99.061 Y86.873 E7.49374
G1 X99.728 Y87.257 E7.53214
G1 X100.351 Y87.707 E7.57048
G1 X100.551 Y87.887 E7.58391
G1 X101.036 Y87.402 E7.61812
G1 X101.608 Y86.887 E7.65652
G1 X102.229 Y86.435 E7.69484
G1 X102.895 Y86.049 E7.73325
G1 X103.596 Y85.734 E7.77159
G1 X104.353 Y85.487 E7.81132
G1 X107.653 Y84.602 E7.98177
G1 X108.405 Y84.441 E8.02014
G1 X109.17 Y84.36 E8.05852
G1 X109.939 Y84.358 E8.09688
G1 X110.705 Y84.436 E8.1353
G1 X111.486 Y84.601 E8.17512
G1 X114.787 Y85.486 E8.34563
G1 X115.519 Y85.724 E8.38403
G1 X116.222 Y86.036 E8.4224
G1 X116.889 Y86.42 E8.4608
G1 X117.512 Y86.87 E8.49914
G1 X118.105 Y87.402 E8.53888
G1 X120.52 Y89.818 E8.70931
G1 X121.034 Y90.39 E8.74768
G1 X121.487 Y91.012 E8.78607
G1 X121.873 Y91.677 E8.82443
G1 X122.187 Y92.379 E8.86279
G1 X122.433 Y93.131 E8.90227
G1 X123.319 Y96.431 E9.07274
G1 X123.479 Y97.183 E9.11109
G1 X123.561 Y97.948 E9.14948
G1 X123.563 Y98.717 E9.18784
G1 X123.485 Y99.483 E9.22626
G1 X123.319 Y100.269 E9.26634
G1 X122.433 Y103.569 E9.4368
G1 X122.195 Y104.3 E9.47516
G1 X121.883 Y105.003 E9.51353
G1 X121.499 Y105.67 E9.55193
G1 X121.048 Y106.293 E9.5903
G1 X120.52 Y106.882 E9.62976
G1 X118.105 Y109.298 E9.80019
G1 X117.533 Y109.813 E9.83859
G1 X116.912 Y110.265 E9.87691
G1 X116.246 Y110.651 E9.91531
G1 X115.545 Y110.966 E9.95365
G1 X114.787 Y111.214 E9.99344
G1 X111.486 Y112.099 E10.16395
G1 X110.734 Y112.259 E10.2023
G1 X109.969 Y112.34 E10.24068
G1 X109.2 Y112.342 E10.27905
G1 X108.435 Y112.263 E10.31742
G1 X107.653 Y112.098 E10.35729
G1 X104.353 Y111.213 E10.52775
G1 X103.622 Y110.976 E10.56609
G1 X102.919 Y110.664 E10.60446
G1 X102.781 Y110.584 E10.61242
G1 X100.943 Y112.422 E10.7421
G1 X100.371 Y112.936 E10.78046
G1 X99.749 Y113.389 E10.81885
G1 X99.084 Y113.775 E10.85721
G1 X98.382 Y114.09 E10.8956
G1 X97.627 Y114.336 E10.93522
G1 X93.667 Y115.398 E11.13976
G1 X92.915 Y115.559 E11.17813
G1 X92.15 Y115.64 E11.21651
G1 X91.381 Y115.642 E11.25487
G1 X90.615 Y115.564 E11.29329
G1 X89.834 Y115.399 E11.33311
G1 X85.873 Y114.337 E11.53771
G1 X85.141 Y114.099 E11.57611
G1 X84.438 Y113.787 E11.61448
G1 X83.771 Y113.403 E11.65288
G1 X83.148 Y112.953 E11.69122
G1 X82.556 Y112.421 E11.73093
G1 X79.658 Y109.522 E11.93543
G1 X79.143 Y108.95 E11.97383
G1 X78.69 Y108.328 E12.01222
G1 X78.304 Y107.663 E12.05058
G1 X77.99 Y106.961 E12.08895
G1 X77.744 Y106.208 E12.12847
G1 X76.681 Y102.248 E12.33303
G1 X76.52 Y101.496 E12.3714
G1 X76.439 Y100.731 E12.40978
G1 X76.437 Y99.962 E12.44814
G1 X76.515 Y99.197 E12.48651
G1 X76.681 Y98.412 E12.52654
G1 X77.744 Y94.452 E12.7311
G1 X77.982 Y93.72 E12.7695
G1 X78.294 Y93.017 E12.80787
G1 X78.678 Y92.351 E12.84622
G1 X79.129 Y91.727 E12.88464
G1 X79.658 Y91.138 E12.92413
G1 X82.556 Y88.239 E13.12864
G0 F3600 X82.838 Y88.522
G1 F1800 X83.395 Y88.022 E13.16598
G1 X84.001 Y87.584 E13.20328
G1 X84.651 Y87.214 E13.2406
G1 X85.337 Y86.915 E13.27793
G1 X85.976 Y86.71 E13.31141
G1 X89.937 Y85.648 E13.51601
G1 X90.669 Y85.493 E13.55334
G1 X91.413 Y85.417 E13.59065
G1 X92.161 Y85.421 E13.62797
G1 X92.905 Y85.505 E13.66532
G1 X93.563 Y85.648 E13.69891
G1 X97.523 Y86.71 E13.90346
G1 X98.234 Y86.942 E13.94077
G1 X98.917 Y87.249 E13.97813
G1 X99.562 Y87.626 E14.01541
G1 X100.164 Y88.071 E14.05275
G1 X100.567 Y88.437 E14.07991
G1 X101.319 Y87.685 E14.13297
G1 X101.876 Y87.185 E14.17031
G1 X102.482 Y86.747 E14.20762
G1 X103.132 Y86.377 E14.24493
G1 X103.818 Y86.078 E14.28227
G1 X104.457 Y85.873 E14.31575
G1 X107.757 Y84.988 E14.4862
G1 X108.489 Y84.833 E14.52353
G1 X109.233 Y84.757 E14.56084
G1 X109.981 Y84.761 E14.59816
G1 X110.724 Y84.845 E14.63547
G1 X111.383 Y84.988 E14.66911
G1 X114.684 Y85.873 E14.83961
G1 X115.395 Y86.105 E14.87693
G1 X116.077 Y86.411 E14.91422
G1 X116.723 Y86.789 E14.95156
G1 X117.325 Y87.234 E14.98891
G1 X117.822 Y87.685 E15.02239
G1 X120.237 Y90.101 E15.19282
G1 X120.737 Y90.658 E15.23016
G1 X121.174 Y91.265 E15.26748
G1 X121.545 Y91.915 E15.30481
G1 X121.843 Y92.6 E15.34208
G1 X122.047 Y93.235 E15.37536
G1 X122.933 Y96.535 E15.54583
G1 X123.088 Y97.267 E15.58316
G1 X123.164 Y98.011 E15.62047
G1 X123.16 Y98.759 E15.65779
G1 X123.077 Y99.502 E15.69508
G1 X122.933 Y100.165 E15.72893
G1 X122.047 Y103.465 E15.8994
G1 X121.814 Y104.176 E15.93673
G1 X121.507 Y104.858 E15.97404
G1 X121.13 Y105.504 E16.01136
G1 X120.685 Y106.106 E16.04871
G1 X120.237 Y106.599 E16.08194
G1 X117.822 Y109.015 E16.25237
G1 X117.265 Y109.515 E16.28971
G1 X116.659 Y109.953 E16.32701
G1 X116.009 Y110.323 E16.36433
G1 X115.323 Y110.622 E16.40166
G1 X114.684 Y110.827 E16.43514
G1 X111.383 Y111.712 E16.60565
G1 X110.651 Y111.867 E16.64298
G1 X109.907 Y111.943 E16.68029
G1 X109.159 Y111.939 E16.71761
G1 X108.415 Y111.855 E16.75496
G1 X107.757 Y111.712 E16.78855
G1 X104.457 Y110.827 E16.95901
G1 X103.746 Y110.595 E16.99632
G1 X103.063 Y110.288 E17.03368
G1 X102.715 Y110.084 E17.05381
G1 X100.66 Y112.139 E17.1988
G1 X100.103 Y112.639 E17.23614
G1 X99.497 Y113.076 E17.27342
G1 X98.847 Y113.447 E17.31075
G1 X98.161 Y113.746 E17.34809
G1 X97.523 Y113.95 E17.38151
G1 X93.563 Y115.012 E17.58605
G1 X92.831 Y115.167 E17.62338
G1 X92.087 Y115.243 E17.66069
G1 X91.339 Y115.239 E17.69801
G1 X90.596 Y115.155 E17.73532
G1 X89.937 Y115.012 E17.76896
G1 X85.976 Y113.95 E17.97355
G1 X85.265 Y113.718 E18.01087
G1 X84.583 Y113.412 E18.04816
G1 X83.937 Y113.034 E18.0855
G1 X83.335 Y112.589 E18.12285
G1 X82.838 Y112.138 E18.15633
G1 X79.94 Y109.239 E18.36084
G1 X79.441 Y108.682 E18.39815
G1 X79.003 Y108.076 E18.43545
G1 X78.633 Y107.426 E18.47276
G1 X78.334 Y106.74 E18.5101
G1 X78.13 Y106.105 E18.54337
G1 X77.067 Y102.145 E18.74793
G1 X76.912 Y101.413 E18.78526
G1 X76.836 Y100.669 E18.82257
G1 X76.84 Y99.921 E18.85989
G1 X76.924 Y99.177 E18.89725
G1 X77.067 Y98.515 E18.93104
G1 X78.13 Y94.555 E19.13559
G1 X78.363 Y93.844 E19.17292
G1 X78.669 Y93.162 E19.21022
G1 X79.047 Y92.516 E19.24756
G1 X79.492 Y91.915 E19.28487
G1 X79.94 Y91.421 E19.31814
G1 X82.838 Y88.522 E19.52264
G0 F3600 X83.121 Y88.805
G1 F1800 X83.662 Y88.32 E19.55889
G1 X84.253 Y87.898 E19.59512
G1 X84.887 Y87.543 E19.63137
G1 X85.556 Y87.26 E19.66761
G1 X86.08 Y87.096 E19.695
G1 X90.041 Y86.034 E19.8996
G1 X90.752 Y85.885 E19.93584
G1 X91.475 Y85.815 E19.97208
G1 X92.201 Y85.824 E20.0083
G1 X92.922 Y85.914 E20.04455
G1 X93.46 Y86.034 E20.07205
G1 X97.42 Y87.096 E20.2766
G1 X98.11 Y87.323 E20.31284
G1 X98.771 Y87.624 E20.34908
G1 X99.395 Y87.995 E20.38529
G1 X99.974 Y88.434 E20.42155
G1 X100.377 Y88.804 E20.44884
G1 X100.572 Y88.999 E20.4626
G1 X101.602 Y87.968 E20.53531
G1 X102.143 Y87.483 E20.57155
G1 X102.734 Y87.061 E20.60778
G1 X103.368 Y86.706 E20.64404
G1 X104.037 Y86.423 E20.68028
G1 X104.56 Y86.259 E20.70762
G1 X107.86 Y85.374 E20.87808
G1 X108.571 Y85.225 E20.91432
G1 X109.294 Y85.155 E20.95056
G1 X110.021 Y85.164 E20.98683
G1 X110.741 Y85.254 E21.02303
G1 X111.279 Y85.374 E21.05053
G1 X114.58 Y86.259 E21.22104
G1 X115.27 Y86.486 E21.25727
G1 X115.931 Y86.786 E21.29349
G1 X116.555 Y87.158 E21.32973
G1 X117.135 Y87.596 E21.36599
G1 X117.539 Y87.968 E21.39339
G1 X119.954 Y90.384 E21.56382
G1 X120.438 Y90.925 E21.60003
G1 X120.86 Y91.516 E21.63627
G1 X121.215 Y92.15 E21.67252
G1 X121.498 Y92.819 E21.70876
G1 X121.66 Y93.339 E21.73593
G1 X122.546 Y96.639 E21.9064
G1 X122.696 Y97.349 E21.9426
G1 X122.766 Y98.072 E21.97884
G1 X122.757 Y98.799 E22.01511
G1 X122.668 Y99.52 E22.05136
G1 X122.546 Y100.061 E22.07903
G1 X121.66 Y103.361 E22.24949
G1 X121.434 Y104.051 E22.28572
G1 X121.132 Y104.712 E22.32197
G1 X120.761 Y105.336 E22.35819
G1 X120.322 Y105.916 E22.39448
G1 X119.954 Y106.316 E22.4216
G1 X117.539 Y108.732 E22.59203
G1 X116.998 Y109.217 E22.62828
G1 X116.407 Y109.639 E22.66451
G1 X115.773 Y109.994 E22.70076
G1 X115.104 Y110.277 E22.737
G1 X114.58 Y110.441 E22.76439
G1 X111.279 Y111.326 E22.93489
G1 X110.568 Y111.475 E22.97114
G1 X109.845 Y111.545 E23.00737
G1 X109.119 Y111.536 E23.0436
G1 X108.398 Y111.446 E23.07985
G1 X107.86 Y111.326 E23.10735
G1 X104.56 Y110.441 E23.2778
G1 X103.87 Y110.214 E23.31404
G1 X103.209 Y109.913 E23.35028
G1 X102.651 Y109.582 E23.38265
G1 X100.377 Y111.856 E23.54309
G1 X99.836 Y112.34 E23.57931
G1 X99.245 Y112.763 E23.61556
G1 X98.611 Y113.117 E23.65179
G1 X97.942 Y113.4 E23.68803
G1 X97.42 Y113.564 E23.71533
G1 X93.46 Y114.626 E23.91988
G1 X92.749 Y114.775 E23.95612
G1 X92.026 Y114.845 E23.99236
G1 X91.299 Y114.836 E24.02863
G1 X90.579 Y114.746 E24.06483
G1 X90.041 Y114.626 E24.09233
G1 X86.08 Y113.564 E24.29693
G1 X85.39 Y113.337 E24.33317
G1 X84.729 Y113.037 E24.36938
G1 X84.105 Y112.665 E24.40562
G1 X83.525 Y112.227 E24.44188
G1 X83.121 Y111.855 E24.46928
G1 X80.223 Y108.956 E24.67379
G1 X79.739 Y108.415 E24.71
G1 X79.317 Y107.824 E24.74623
G1 X78.962 Y107.19 E24.78249
G1 X78.679 Y106.521 E24.81873
G1 X78.517 Y106.001 E24.8459
G1 X77.454 Y102.041 E25.05046
G1 X77.304 Y101.33 E25.08671
G1 X77.234 Y100.607 E25.12295
G1 X77.243 Y99.881 E25.15917
G1 X77.333 Y99.16 E25.19542
G1 X77.454 Y98.619 E25.22308
G1 X78.517 Y94.659 E25.42764
G1 X78.743 Y93.969 E25.46386
G1 X79.044 Y93.308 E25.5001
G1 X79.416 Y92.684 E25.53634
G1 X79.855 Y92.105 E25.57259
G1 X80.223 Y91.704 E25.59975
G1 X83.121 Y88.805 E25.80425
G0 F3600 X83.404 Y89.088
G1 F1800 X83.929 Y88.619 E25.83937
G1 X84.504 Y88.213 E25.87449
G1 X85.122 Y87.874 E25.90966
G1 X85.773 Y87.608 E25.94474
G1 X86.183 Y87.483 E25.96613
G1 X90.144 Y86.421 E26.17072
G1 X90.834 Y86.277 E26.20589
G1 X91.535 Y86.213 E26.24101
G1 X92.238 Y86.228 E26.27609
G1 X92.936 Y86.323 E26.31123
G1 X93.356 Y86.421 E26.33275
G1 X97.316 Y87.483 E26.53729
G1 X97.984 Y87.703 E26.57238
G1 X98.624 Y87.998 E26.60754
G1 X99.225 Y88.364 E26.64265
G1 X99.782 Y88.795 E26.67778
G1 X100.094 Y89.087 E26.6991
G1 X100.572 Y89.565 E26.73283
G1 X101.885 Y88.251 E26.8255
G1 X102.41 Y87.782 E26.86062
G1 X102.985 Y87.376 E26.89574
G1 X103.602 Y87.037 E26.93086
G1 X104.254 Y86.771 E26.96599
G1 X104.664 Y86.646 E26.98738
G1 X107.964 Y85.761 E27.15783
G1 X108.653 Y85.617 E27.19295
G1 X109.354 Y85.553 E27.22807
G1 X110.058 Y85.568 E27.2632
G1 X110.756 Y85.663 E27.29835
G1 X111.176 Y85.76 E27.31985
G1 X114.477 Y86.645 E27.49035
G1 X115.145 Y86.866 E27.52546
G1 X115.784 Y87.161 E27.56057
G1 X116.386 Y87.527 E27.59572
G1 X116.942 Y87.958 E27.63082
G1 X117.256 Y88.251 E27.65224
G1 X119.671 Y90.667 E27.82267
G1 X120.14 Y91.192 E27.85779
G1 X120.546 Y91.767 E27.89291
G1 X120.884 Y92.385 E27.92805
G1 X121.15 Y93.036 E27.96314
G1 X121.274 Y93.442 E27.98432
G1 X122.16 Y96.742 E28.15478
G1 X122.304 Y97.432 E28.18995
G1 X122.368 Y98.133 E28.22507
G1 X122.353 Y98.836 E28.26015
G1 X122.258 Y99.534 E28.29529
G1 X122.16 Y99.958 E28.317
G1 X121.274 Y103.258 E28.48747
G1 X121.053 Y103.926 E28.52258
G1 X120.758 Y104.565 E28.55769
G1 X120.392 Y105.167 E28.59284
G1 X119.961 Y105.723 E28.62794
G1 X119.671 Y106.033 E28.64911
G1 X117.256 Y108.449 E28.81954
G1 X116.731 Y108.918 E28.85466
G1 X116.156 Y109.324 E28.88978
G1 X115.539 Y109.663 E28.9249
G1 X114.887 Y109.929 E28.96003
G1 X114.477 Y110.055 E28.98143
G1 X111.176 Y110.94 E29.15194
G1 X110.486 Y111.083 E29.18709
G1 X109.785 Y111.147 E29.22221
G1 X109.081 Y111.132 E29.25734
G1 X108.384 Y111.036 E29.29244
G1 X107.964 Y110.939 E29.31395
G1 X104.664 Y110.054 E29.4844
G1 X103.996 Y109.834 E29.51949
G1 X103.356 Y109.539 E29.55465
G1 X102.755 Y109.173 E29.58976
G1 X102.608 Y109.059 E29.59904
G1 X100.094 Y111.573 E29.77641
G1 X99.569 Y112.042 E29.81153
G1 X98.994 Y112.448 E29.84665
G1 X98.376 Y112.786 E29.88179
G1 X97.725 Y113.053 E29.9169
G1 X97.316 Y113.177 E29.93822
G1 X93.356 Y114.239 E30.14277
G1 X92.667 Y114.383 E30.17788
G1 X91.966 Y114.447 E30.213
G1 X91.262 Y114.432 E30.24813
G1 X90.564 Y114.337 E30.28328
G1 X90.144 Y114.239 E30.30479
G1 X86.183 Y113.177 E30.50939
G1 X85.515 Y112.957 E30.54448
G1 X84.876 Y112.662 E30.57959
G1 X84.274 Y112.296 E30.61474
G1 X83.718 Y111.865 E30.64984
G1 X83.404 Y111.572 E30.67126
G1 X80.506 Y108.673 E30.87577
